X:23
T: Lazarus und der Prasser
N: D0024
O: Europa, Mitteleuropa, Lothringen, Gebenhausen
N: Inzipit =  Variante
R: Legenden - Lied
M: 2/4
L: 1/16
K: F
C2 | F3FF2G2 | A4c2B2 | A4G4 | F6
F2 | G3GG2G2 | G4A2B2 | c4B2A2 | G4z2
F2 | A4A2B2 | c6c2 | B2A2G2F2 | B4z2
G2 | c4B2G2 | F2c2B2G2 | A4G2C2 | F4z2

@@@ Tune index: 2545
